X: 1
T:The 29th of May
% Nottingham Music Database
%P:AAB
M:4/4
L:1/4
K:D
|:"D"af "G"gf|"Em"e/2d/2c/2B/2 "A"Af|"G"gB "A7"cB/2c/2|"D"dA "A7"GF/2E/2:|
"D"FA -AG/2F/2|"G"GB -"Em"BB|"A7"c/2d/2e c/2d/2e|"A7"cB/2c/2 Ad/2e/2|
"D"fe/2f/2 "D7"de/2f/2|"G"gf/2g/2 "A"ef/2g/2|"G"aB "A7"cB/2c/2|"D"d2 d||


